src/assets/icons/letters,simple,serif-o.svg

<svg width="48" height="48" viewBox="0 0 48 48" fill="none" xmlns="http://www.w3.org/2000/svg">
<rect opacity="0.2" x="5" y="5" width="38" height="38" rx="4" fill="black"/>
<path d="M24.0096 12.6C25.8096 12.6 27.4896 12.91 29.0496 13.53C30.6096 14.15 31.9596 15 33.0996 16.08C34.2596 17.16 35.1696 18.43 35.8296 19.89C36.4896 21.35 36.8196 22.93 36.8196 24.63C36.8196 26.25 36.4796 27.77 35.7996 29.19C35.1396 30.61 34.2296 31.85 33.0696 32.91C31.9296 33.95 30.5796 34.78 29.0196 35.4C27.4596 36 25.7896 36.3 24.0096 36.3C22.2296 36.3 20.5596 36 18.9996 35.4C17.4396 34.78 16.0796 33.95 14.9196 32.91C13.7596 31.85 12.8496 30.61 12.1896 29.19C11.5296 27.77 11.1996 26.25 11.1996 24.63C11.1996 22.93 11.5296 21.35 12.1896 19.89C12.8496 18.43 13.7496 17.16 14.8896 16.08C16.0496 15 17.4096 14.15 18.9696 13.53C20.5296 12.91 22.2096 12.6 24.0096 12.6ZM24.0096 34.35C25.1696 34.35 26.2196 34.13 27.1596 33.69C28.0996 33.23 28.8996 32.59 29.5596 31.77C30.2196 30.93 30.7196 29.92 31.0596 28.74C31.4196 27.54 31.5996 26.2 31.5996 24.72C31.5996 23.16 31.4196 21.76 31.0596 20.52C30.7196 19.26 30.2196 18.19 29.5596 17.31C28.8996 16.41 28.0996 15.73 27.1596 15.27C26.2196 14.79 25.1696 14.55 24.0096 14.55C22.8296 14.55 21.7696 14.79 20.8296 15.27C19.9096 15.73 19.1196 16.41 18.4596 17.31C17.7996 18.19 17.2896 19.26 16.9296 20.52C16.5896 21.76 16.4196 23.16 16.4196 24.72C16.4196 26.2 16.5896 27.54 16.9296 28.74C17.2896 29.92 17.7996 30.93 18.4596 31.77C19.1196 32.59 19.9096 33.23 20.8296 33.69C21.7696 34.13 22.8296 34.35 24.0096 34.35Z" fill="black"/>
</svg>

<svg xmlns="http://www.w3.org/2000/svg" width="48" height="48" fill="none" viewBox="0 0 48 48">
  <rect width="38" height="38" x="5" y="5" fill="#000" opacity=".2" rx="4"/>
  <path fill="#000" d="M24.01 12.6c1.8 0 3.48.31 5.04.93 1.56.62 2.91 1.47 4.05 2.55 1.16 1.08 2.07 2.35 2.73 3.81.66 1.46.99 3.04.99 4.74 0 1.62-.34 3.14-1.02 4.56-.66 1.42-1.57 2.66-2.73 3.72-1.14 1.04-2.49 1.87-4.05 2.49-1.56.6-3.23.9-5.01.9-1.78 0-3.45-.3-5.01-.9-1.56-.62-2.92-1.45-4.08-2.49-1.16-1.06-2.07-2.3-2.73-3.72-.66-1.42-.99-2.94-.99-4.56 0-1.7.33-3.28.99-4.74.66-1.46 1.56-2.73 2.7-3.81 1.16-1.08 2.52-1.93 4.08-2.55 1.56-.62 3.24-.93 5.04-.93zm0 21.75c1.16 0 2.21-.22 3.15-.66a6.99 6.99 0 002.4-1.92c.66-.84 1.16-1.85 1.5-3.03.36-1.2.54-2.54.54-4.02 0-1.56-.18-2.96-.54-4.2-.34-1.26-.84-2.33-1.5-3.21-.66-.9-1.46-1.58-2.4-2.04-.94-.48-1.99-.72-3.15-.72-1.18 0-2.24.24-3.18.72-.92.46-1.71 1.14-2.37 2.04-.66.88-1.17 1.95-1.53 3.21-.34 1.24-.51 2.64-.51 4.2 0 1.48.17 2.82.51 4.02.36 1.18.87 2.19 1.53 3.03.66.82 1.45 1.46 2.37 1.92.94.44 2 .66 3.18.66z"/>
</svg>
